X:588
L:1/8
Q:1/2=70
M:4/4
K:G
 G | d>ed>B e>fg>e | d<BA<B GA/B/ c/d/e/f/ | g/a/b/a/ g/f/e/d/ | c/B/c/d/ e/f/g/c/ | 
 B>c A2 G2 z d | d>ed>B e>fg>e | d<B A>B G2 d e/f/ | g<fg>a gfed | e>dg>B d2 z d | g>fg>a gfed | 
 e>dc>B e3 f | g>f ed e>f g>e | d<B A>B GA/B/ c/d/e/f/ | g/f/e/d/ e/d/c/B/ | e/d/e/f/ g>c | 
 B>c A2 G2 z :|

